X:1
T:Io mi sento morir
T:Io mi sento morir
T:Ludovico Bellanda Veronese
T:Source : Musische di L.Bellanda---Venetia---G.Visconti---1607. Editor : André Vierendeels (30/06/15).
T:Notes : Original clefs : C4, F4 Editorial accidentals above the sraff Figures in BC are notated in original print
C:Ludovico Bellanda Veronese
%%score 1 2
L:1/8
Q:1/4=70
M:4/4
K:C
V:1 treble-8 nm="Tenor" snm="T"
V:2 bass nm="BC" snm="BC"
V:1
 z8 | z4 e2 e2 | e6 ^GG | ^G8 | z4 c2 c2 | c6 EE | E8 | z2 A3 A A2 | B2 c4 B2 | c4 A4 | B4 z2 B2 | %11
w: |Io mi|sen- to mo-|rir,|io mi|sen- to mo-|rir,|quan- do non|mi- * *|ro co-|lei, co-|
 c4 c2 e2- | e2 c2 B4 | A8 :: z ccc c2 c2- | cc c2 c2 B2 | A6 ^G2 | z2 G2 AB c2- | c2 B2 c4 | %19
w: lei che la|_ mia vi-|ta,|poi se la mi- ro'an-|* co mo- rir mi|sen- to,|mo- rir mi sen-|* * to,|
 z2 G2 _B4- | BAFG A4 | AGFG A4- | A2 D2 F4- | F4 E4 | G6 A2 | A4 G4 | z2 G2 c4 | z2 A2 d4- | %28
w: per- che|_ del mio tor- men-|to non ha pie- ta,|_ la cru-|* da'e|non m'a-|i- ta,|e non,|e non|
 d2 c2 B4 | A4 z2 E2 | ^F2 G3 F B2 | A4 G4 | z4 z2 G2 | A2 c3 B e2 | d8 | c8 | z GGF A2 A2 | %37
w: _ m'a- i-|ta, e|sà pur s'i l'a-|do- ro,|e|sa- pur s'i l'a-|do-|ro,|co- si mi- ran- do|
 z ccB d4- | d2 c2 cd/e/ ^G2 | A8 :| %40
w: e non mi- ran-|* do'i mo- * * *|ro.|
V:2
 z4 A,2 A,2 | A,6 G,2 | F,2 E,2 F,4 |"^#" E,8 | F,2 F,2 F,2 E,2 | D,2 C,2 D,4 |"^#" E,8 | %7
 A,,6 A,,2 | G,,2 F,,2 G,,4 |"^#" C,4 D,4 | G,,4 G,,4 | A,,2 B,,2 C,2 A,,2 |"^#" C,3 D, E,4 | %13
 A,,8 :: A,4 A,,4 | A,6 G,2 |"^6" F,4 E,4 | G,4 F,4 |"^6" D,4 C,4 | C,4 G,2 G,,2 | %20
 D,4- D, C,A,,B,, | C,4- C, B,,G,,A,, | _B,,6 F,,2 | A,,8 |"^6" B,,4 C,4 |"^#" D,4 G,,2 G,,2 | %26
 C,6 A,,2 | D,6 D,2 |"^#" E,8 |"^#" A,,8 |"^#3""^4" D,4 D,4 |"^#3" D,4 G,,4- | G,,4 C,4 | %33
 F,,4 G,,4 | G,,8 | C,8 | C,4 F,,4 | F,4 D,4 |"^#" E,8 |"^#" A,,8 :| %40

